X: 11820
T: Ellin Polkka
R: polka
M: 2/4
K: Aminor
L:1/16
|:"Am"E2AA A2AB|cBA2 A2AB|cBA2 A2AB|cBA2 "E7"A2B2|
"Am"E2AA A2AB|cBA2 A2AB|c2d2 "E7"c2B2|"Am"A4 A4:|
|:"Am"eee2 d2c2|"E7"B2E2 BEBc|ddd2 c2B2|"Am"c2A2 AcAc|
"Am"eee2 d2c2|"E7"B2E2 BEBc|ddd2 c2B2|"Am"A2c2 A4:|
|:"Am"a4 g4|"Dm"fede f2d2|"G7"g4 f4|"C"edcd e2c2|
"Dm"f3g f2e2|dedc B2d2|"E7"efed c2B2|"Am"A2c2 A4:|
|:"E7"B2BB B2B2|"Am"A^GAB c2A2|"E7"B2BB B2B2|"Am"A^GAB c2A2|
"E7"B2BB B2B2|"Am"A^GAB c2A2|"E7"B2E2 ^F2^G2|"Am"A4 A4:|

